cutejava-front/src/assets/icons/svg/dengji.svg

<?xml version="1.0" standalone="no"?><!DOCTYPE svg PUBLIC "-//W3C//DTD SVG 1.1//EN" "http://www.w3.org/Graphics/SVG/1.1/DTD/svg11.dtd"><svg t="1576035802004" class="icon" viewBox="0 0 1024 1024" version="1.1" xmlns="http://www.w3.org/2000/svg" p-id="5313" xmlns:xlink="http://www.w3.org/1999/xlink" width="200" height="200"><defs><style type="text/css"></style></defs><path d="M936.96 385.877333l-203.434667-204.8-18.090667-7.68L308.565333 173.397333l-18.090667 7.68L87.04 385.877333c-9.728 9.898667-9.898667 25.941333-0.170667 35.84l406.869333 421.034667c4.778667 4.949333 11.434667 7.850667 18.432 7.850667 6.997333 0 13.653333-2.901333 18.432-7.850667l406.869333-421.034667C946.858667 411.648 946.688 395.776 936.96 385.877333zM868.522667 389.632l-141.994667 0-163.84-165.034667 141.994667 0L868.522667 389.632zM319.317333 224.768l143.018667 0-163.84 165.034667L155.477333 389.802667 319.317333 224.768zM176.469333 440.832l132.608 0 18.090667-7.509333 185.173333-186.538667 185.173333 186.538667 18.090667 7.509333 131.584 0L512 787.968 176.469333 440.832z" p-id="5314"></path></svg>

<svg class="icon" viewBox="0 0 1024 1024" xmlns="http://www.w3.org/2000/svg" width="200" height="200"><defs><style/></defs><path d="M936.96 385.877l-203.435-204.8-18.09-7.68h-406.87l-18.09 7.68-203.435 204.8c-9.728 9.899-9.899 25.942-.17 35.84l406.869 421.035c4.778 4.95 11.434 7.85 18.432 7.85 6.997 0 13.653-2.9 18.432-7.85l406.869-421.035c9.387-10.069 9.216-25.941-.512-35.84zm-68.437 3.755H726.528l-163.84-165.035h141.995l163.84 165.035zM319.317 224.768h143.019l-163.84 165.035H155.477l163.84-165.035zM176.47 440.832h132.608l18.091-7.51 185.173-186.538 185.174 186.539 18.09 7.509H847.19L512 787.968 176.47 440.832z"/></svg>
